X:148
%%pagewidth 9in
T:The milkmaids' dance
M:C
L:1/8
K:Eb
%%score 1 2
V:1 clef-treble
V:2 clef-bass octave=-1
V:1
E2G2G2FE|B4e4|B2G2c2E2|D4B,4|C2A,2CDE2|
V:2
[EG]4[EB]4|[EG]4[Ec]4|[EG]4[A,A]4|[B,F]4[B,D]4|[A,E]4[A,A]4|
V:1
D2F2B2ed|cBAG AGFE|E3F[B,G]4||B2GA B2GA|BAGFE4|F2DEF2DE|
V:2
[B,F]4[G,E]4|[A,E]4[B,A]4|[EG]4E,4||[EGB]4[EGB]4|[EGB]8|[B,DB]4[B,DB]4|
V:1
FEDCB,4|B2cdc2de|d2cBe3B|cBAG AGFE|E3F[B,G]4||
V:2
[B,DF]8|E4F4&G,2A,4B,2|[A,B,F]4[G,B,E]4|[A,E]4[B,A]4|[EG]4E,4||
V:1
AGFE E2B2|G4E4|F2C2C2F2|D4B,4|C2A,2C2F2|DEF2B2ed|
V:2
[EB]4[EG]4|[EB]4[EG]4|[A,F]4[A,F]4|[B,F]4[B,D]4|[A,E]4[A,F]4|[A,B,F]4[G,B,E]4|
V:1
cBAGF3E|E3F[B,G]4||[EBe]2[EB]2[EBe]4|[EAc]2[EB]2[EAc]4|B2AG FGFE&E4C4|
V:2
[A,E]4[B,DA]4|[EG]4E,4||G,2G,2G,4|A,2G,2A,4|G,4A,4|
V:1
DEF2D2B,2&B,8|C2B,A,C2E2|DEF2B2ed|cBAGF3E|E3F[B,G]4||
V:2
B,8|[A,E]4[A,E]4|[A,B,F]4[G,B,E]4|[A,E]4[B,DA]4|[EG]4E,4||

